src/assets/our_advantages/item-oa-1.svg

<svg width="100" height="100" viewBox="0 0 100 100" fill="none" xmlns="http://www.w3.org/2000/svg">
<circle cx="50" cy="50" r="50" fill="#0F76D1"/>
<path d="M68.75 50C68.75 61.5062 64.5521 70.8333 59.375 70.8333M59.375 29.1666C63.2187 29.1666 66.5229 34.3083 67.9708 41.6666M31.25 50C31.25 38.4937 35.4479 29.1666 40.625 29.1666C45.8021 29.1666 50 38.4937 50 50C50 61.5062 45.8021 70.8333 40.625 70.8333C36.7812 70.8333 33.4771 65.6916 32.0292 58.3333" stroke="white" stroke-width="3.5" stroke-linecap="round"/>
<path d="M40.625 70.8333C45.8021 70.8333 50 61.5062 50 50C50 38.4937 45.8021 29.1666 40.625 29.1666" stroke="white" stroke-width="3.5"/>
<path d="M40.625 29.1666H59.375M40.625 70.8333H59.375M43.75 50C43.75 56.9041 42.35 62.5 40.625 62.5C38.9 62.5 37.5 56.9041 37.5 50C37.5 43.0958 38.9 37.5 40.625 37.5C42.35 37.5 43.75 43.0958 43.75 50Z" stroke="white" stroke-width="3.5"/>
<path d="M43.7501 50H41.6667" stroke="white" stroke-width="3.5" stroke-linecap="round"/>
</svg>

<svg xmlns="http://www.w3.org/2000/svg" width="100" height="100" fill="none"><circle cx="50" cy="50" r="50" fill="#0F76D1"/><path stroke="#fff" stroke-linecap="round" stroke-width="3.5" d="M68.75 50c0 11.506-4.198 20.833-9.375 20.833m0-41.666c3.844 0 7.148 5.141 8.596 12.5M31.25 50c0-11.506 4.198-20.833 9.375-20.833S50 38.494 50 50s-4.198 20.833-9.375 20.833c-3.844 0-7.148-5.141-8.596-12.5"/><path stroke="#fff" stroke-width="3.5" d="M40.625 70.833C45.802 70.833 50 61.506 50 50s-4.198-20.833-9.375-20.833"/><path stroke="#fff" stroke-width="3.5" d="M40.625 29.167h18.75m-18.75 41.666h18.75M43.75 50c0 6.904-1.4 12.5-3.125 12.5S37.5 56.904 37.5 50s1.4-12.5 3.125-12.5S43.75 43.096 43.75 50Z"/><path stroke="#fff" stroke-linecap="round" stroke-width="3.5" d="M43.75 50h-2.083"/></svg>
